source/images/icon/britain.svg

<svg fill="#d1d5db" height="400" viewBox="0 0 395 400" width="395" xmlns="http://www.w3.org/2000/svg"><path d="m197.266 166.797c-20.462 0-37.11 16.648-37.11 37.109 0 20.462 16.648 37.11 37.11 37.11 20.461 0 37.109-16.648 37.109-37.11 0-20.461-16.648-37.109-37.109-37.109zm0 62.5c-14.001 0-25.391-11.391-25.391-25.391 0-11.983 8.348-22.047 19.531-24.701v30.561h21.485v-11.719h-9.766v-18.842c11.184 2.654 19.531 12.718 19.531 24.701 0 14-11.39 25.391-25.39 25.391z"/><path d="m250 143.359v-19.514l-17.969-24.2192v-47.0742l-28.906-34.375v-18.1766h-11.719v18.1766l-28.906 34.375v47.075l-17.969 24.2184v19.514h-11.719v121.094h11.719v135.547h11.719v-10.547h82.031v10.547h11.719v-135.547h11.719v-121.094zm-52.734-113.9426 16.323 19.4117h-32.647zm-23.047 31.1305h46.093v35.1562h-46.093zm-17.97 67.1711 15.059-20.296h51.915l15.057 20.296v15.641h-82.031zm82.032 250.016h-82.031v-50.781h82.031zm0-62.5h-82.031v-50.781h82.031zm11.719-148.437h-11.328v11.719h11.328v50.781h-11.328v11.719h11.328v11.718h-105.469v-11.718h11.328v-11.719h-11.328v-50.781h11.328v-11.719h-11.328v-11.719h105.469z"/><path d="m365.43 51.5625c-.375 0-.749.007-1.124.0219-6.858-12.2453-19.793-19.9438-34.072-19.9438-10.994 0-21.21 4.4875-28.583 12.4367-1.739-.3218-3.506-.4836-5.285-.4836-13.282 0-24.788 9.1751-28.122 21.6469-10.376 1.9789-18.244 11.1196-18.244 22.0641 0 12.3851 10.076 22.4613 22.461 22.4613h92.969c16.047 0 29.101-13.0551 29.101-29.1019 0-16.0469-13.054-29.1016-29.101-29.1016zm0 46.4844h-92.969c-5.923 0-10.742-4.8188-10.742-10.7422 0-5.9235 4.819-10.7422 10.742-10.7422.166 0 .33.0062.494.0133l5.625.2492.472-5.6117c.751-8.9164 8.357-15.9008 17.315-15.9008 1.883 0 3.745.3047 5.534.9047l3.99 1.3398 2.543-3.3539c5.225-6.8906 13.171-10.8429 21.8-10.8429 11.05 0 20.952 6.5867 25.228 16.7796l1.851 4.4157 4.697-.936c1.125-.2242 2.276-.3383 3.42-.3383 9.585 0 17.382 7.7977 17.382 17.3829 0 9.5851-7.797 17.3828-17.382 17.3828z"/><path d="m78.3531 115.649c-4.1804-11.328-15.1164-19.1646-27.4937-19.1646-8.4336 0-16.3282 3.5916-21.8461 9.7786-1.4531-.268-2.925-.404-4.4039-.404-13.5696 0-24.6094 11.04-24.6094 24.61 0 13.569 11.0398 24.609 24.6094 24.609h49.6875c10.9851 0 19.9219-8.937 19.9219-19.922 0-9.595-6.8196-17.627-15.8657-19.507zm-4.0562 27.71h-49.6875c-7.1078 0-12.8906-5.782-12.8906-12.89s5.7828-12.891 12.8906-12.891c1.5383 0 3.0726.287 4.5617.852l4.3992 1.668 2.5797-3.935c3.268-4.984 8.7664-7.96 14.7094-7.96 8.3367 0 15.582 5.919 17.2289 14.074l.982 4.866 4.9617-.17c.1141-.003.2274-.01.3672-.019 4.4766.055 8.1016 3.713 8.1016 8.202-.0008 4.524-3.6805 8.203-8.2039 8.203z"/><path d="m118.359 33.2031c-1.109 0-2.214.0867-3.307.2602-4.762-5.1156-11.443-8.0727-18.5676-8.0727-10.5438 0-19.8805 6.561-23.6367 16.1094-7.7188 1.8539-13.4727 8.8141-13.4727 17.0938 0 9.6929 7.8859 17.5781 17.5781 17.5781h41.4059c11.846 0 21.485-9.6375 21.485-21.4844s-9.639-21.4844-21.485-21.4844zm0 31.25h-41.4059c-3.2312 0-5.8593-2.6281-5.8593-5.8593 0-3.1946 2.5695-5.8001 5.7507-5.8586.1024.0062.2047.0117.3086.0156l4.9516.1594.9805-4.8563c1.2804-6.3414 6.9156-10.9445 13.3992-10.9445 4.6226 0 8.8996 2.3148 11.4426 6.1922l2.579 3.9343 4.399-1.6679c1.13-.4289 2.293-.6461 3.455-.6461 5.385 0 9.766 4.3804 9.766 9.7656s-4.381 9.7656-9.767 9.7656z"/><path d="m185.547 119.922h-11.719v11.719h11.719z"/><path d="m220.703 119.922h-23.437v11.719h23.437z"/><path d="m179.688 335.938h-11.719v32.812h11.719z"/><path d="m203.125 335.938h-11.719v32.812h11.719z"/><path d="m226.562 335.938h-11.718v32.812h11.718z"/><path d="m179.688 273.438h-11.719v32.812h11.719z"/><path d="m203.125 273.438h-11.719v32.812h11.719z"/><path d="m226.562 273.438h-11.718v32.812h11.718z"/><path d="m326.953 74.6094h-11.719v11.7187h11.719z"/><path d="m366.797 74.6094h-28.125v11.7187h28.125z"/><path d="m303.516 74.6094h-11.719v11.7187h11.719z"/><path d="m57.0312 119.922h-11.7187v11.719h11.7187z"/><path d="m208.984 72.2656h-23.437v11.7188h23.437z"/></svg>

<svg width="395" height="400" viewBox="0 0 395 400" fill="#D1D5DB" xmlns="http://www.w3.org/2000/svg">
    <path d="M197.266 166.797C176.804 166.797 160.156 183.445 160.156 203.906C160.156 224.368 176.804 241.016 197.266 241.016C217.727 241.016 234.375 224.368 234.375 203.906C234.375 183.445 217.727 166.797 197.266 166.797ZM197.266 229.297C183.265 229.297 171.875 217.906 171.875 203.906C171.875 191.923 180.223 181.859 191.406 179.205V209.766H212.891V198.047H203.125V179.205C214.309 181.859 222.656 191.923 222.656 203.906C222.656 217.906 211.266 229.297 197.266 229.297Z"/>
    <path d="M250 143.359V123.845L232.031 99.6258V52.5516L203.125 18.1766V0H191.406V18.1766L162.5 52.5516V99.6266L144.531 123.845V143.359H132.812V264.453H144.531V400H156.25V389.453H238.281V400H250V264.453H261.719V143.359H250ZM197.266 29.4164L213.589 48.8281H180.942L197.266 29.4164ZM174.219 60.5469H220.312V95.7031H174.219V60.5469ZM156.249 127.718L171.308 107.422H223.223L238.28 127.718V143.359H156.249V127.718ZM238.281 377.734H156.25V326.953H238.281V377.734ZM238.281 315.234H156.25V264.453H238.281V315.234ZM250 166.797H238.672V178.516H250V229.297H238.672V241.016H250V252.734H144.531V241.016H155.859V229.297H144.531V178.516H155.859V166.797H144.531V155.078H250V166.797Z"/>
    <path d="M365.43 51.5625C365.055 51.5625 364.681 51.5695 364.306 51.5844C357.448 39.3391 344.513 31.6406 330.234 31.6406C319.24 31.6406 309.024 36.1281 301.651 44.0773C299.912 43.7555 298.145 43.5937 296.366 43.5937C283.084 43.5937 271.578 52.7688 268.244 65.2406C257.868 67.2195 250 76.3602 250 87.3047C250 99.6898 260.076 109.766 272.461 109.766H365.43C381.477 109.766 394.531 96.7109 394.531 80.6641C394.531 64.6172 381.477 51.5625 365.43 51.5625ZM365.43 98.0469H272.461C266.538 98.0469 261.719 93.2281 261.719 87.3047C261.719 81.3812 266.538 76.5625 272.461 76.5625C272.627 76.5625 272.791 76.5687 272.955 76.5758L278.58 76.825L279.052 71.2133C279.803 62.2969 287.409 55.3125 296.367 55.3125C298.25 55.3125 300.112 55.6172 301.901 56.2172L305.891 57.557L308.434 54.2031C313.659 47.3125 321.605 43.3602 330.234 43.3602C341.284 43.3602 351.186 49.9469 355.462 60.1398L357.313 64.5555L362.01 63.6195C363.135 63.3953 364.286 63.2812 365.43 63.2812C375.015 63.2812 382.812 71.0789 382.812 80.6641C382.812 90.2492 375.015 98.0469 365.43 98.0469Z"/>
    <path d="M78.3531 115.649C74.1727 104.321 63.2367 96.4844 50.8594 96.4844C42.4258 96.4844 34.5312 100.076 29.0133 106.263C27.5602 105.995 26.0883 105.859 24.6094 105.859C11.0398 105.859 0 116.899 0 130.469C0 144.038 11.0398 155.078 24.6094 155.078H74.2969C85.282 155.078 94.2188 146.141 94.2188 135.156C94.2188 125.561 87.3992 117.529 78.3531 115.649ZM74.2969 143.359H24.6094C17.5016 143.359 11.7188 137.577 11.7188 130.469C11.7188 123.361 17.5016 117.578 24.6094 117.578C26.1477 117.578 27.682 117.865 29.1711 118.43L33.5703 120.098L36.15 116.163C39.418 111.179 44.9164 108.203 50.8594 108.203C59.1961 108.203 66.4414 114.122 68.0883 122.277L69.0703 127.143L74.032 126.973C74.1461 126.97 74.2594 126.963 74.3992 126.954C78.8758 127.009 82.5008 130.667 82.5008 135.156C82.5 139.68 78.8203 143.359 74.2969 143.359Z"/>
    <path d="M118.359 33.2031C117.25 33.2031 116.145 33.2898 115.052 33.4633C110.29 28.3477 103.609 25.3906 96.4844 25.3906C85.9406 25.3906 76.6039 31.9516 72.8477 41.5C65.1289 43.3539 59.375 50.3141 59.375 58.5938C59.375 68.2867 67.2609 76.1719 76.9531 76.1719H118.359C130.205 76.1719 139.844 66.5344 139.844 54.6875C139.844 42.8406 130.205 33.2031 118.359 33.2031ZM118.359 64.4531H76.9531C73.7219 64.4531 71.0938 61.825 71.0938 58.5938C71.0938 55.3992 73.6633 52.7937 76.8445 52.7352C76.9469 52.7414 77.0492 52.7469 77.1531 52.7508L82.1047 52.9102L83.0852 48.0539C84.3656 41.7125 90.0008 37.1094 96.4844 37.1094C101.107 37.1094 105.384 39.4242 107.927 43.3016L110.506 47.2359L114.905 45.568C116.035 45.1391 117.198 44.9219 118.36 44.9219C123.745 44.9219 128.126 49.3023 128.126 54.6875C128.126 60.0727 123.745 64.4531 118.359 64.4531Z"/>
    <path d="M185.547 119.922H173.828V131.641H185.547V119.922Z"/>
    <path d="M220.703 119.922H197.266V131.641H220.703V119.922Z"/>
    <path d="M179.688 335.938H167.969V368.75H179.688V335.938Z"/>
    <path d="M203.125 335.938H191.406V368.75H203.125V335.938Z"/>
    <path d="M226.562 335.938H214.844V368.75H226.562V335.938Z"/>
    <path d="M179.688 273.438H167.969V306.25H179.688V273.438Z"/>
    <path d="M203.125 273.438H191.406V306.25H203.125V273.438Z"/>
    <path d="M226.562 273.438H214.844V306.25H226.562V273.438Z"/>
    <path d="M326.953 74.6094H315.234V86.3281H326.953V74.6094Z"/>
    <path d="M366.797 74.6094H338.672V86.3281H366.797V74.6094Z"/>
    <path d="M303.516 74.6094H291.797V86.3281H303.516V74.6094Z"/>
    <path d="M57.0312 119.922H45.3125V131.641H57.0312V119.922Z"/>
    <path d="M208.984 72.2656H185.547V83.9844H208.984V72.2656Z"/>
</svg>
